com.fiatuconnect/capabilities/timetofullcharge2.svg

<svg height="960" viewBox="0 0 960 960" width="960" xmlns="http://www.w3.org/2000/svg"><g fill="#000" fill-rule="evenodd"><path d="m479.5 10.5c-258.750397 0-468.5 209.983438-468.5 469s209.749603 469 468.5 469 468.5-209.983438 468.5-469-209.749603-469-468.5-469zm0 40c236.649024 0 428.5 192.064857 428.5 429s-191.850976 429-428.5 429-428.5-192.064857-428.5-429 191.850976-429 428.5-429z" fill-rule="nonzero"/><path d="m480.028229 101.000361c208.811995.285153 377.971771 169.426559 377.971771 377.999639 0 208.769889-169.466466 378-378.5 378-206.701943 0-375.102483-165.618921-378.449336-371.755136l-.042678-5.082837c-.08969-11.108928 8.890754-20.162705 20.000051-20.162685l338.991963.000658.000917-338.999709c.000028-10.941172 8.785058-19.828162 19.682488-19.99993z"/></g></svg>

<?xml version="1.0" encoding="UTF-8"?>
<svg width="960px" height="960px" viewBox="0 0 960 960" version="1.1" xmlns="http://www.w3.org/2000/svg" xmlns:xlink="http://www.w3.org/1999/xlink">
    <title>se.cohen.renaultze/capabilities/timetofullcharge2</title>
    <g id="se.cohen.renaultze/capabilities/timetofullcharge2" stroke="none" stroke-width="1" fill="none" fill-rule="evenodd">
        <path d="M479.5,10.5 C220.749603,10.5 11,220.483438 11,479.5 C11,738.516562 220.749603,948.5 479.5,948.5 C738.250397,948.5 948,738.516562 948,479.5 C948,220.483438 738.250397,10.5 479.5,10.5 Z M479.5,50.5 C716.149024,50.5 908,242.564857 908,479.5 C908,716.435143 716.149024,908.5 479.5,908.5 C242.850976,908.5 51,716.435143 51,479.5 C51,242.564857 242.850976,50.5 479.5,50.5 Z" id="Oval" fill="#000000" fill-rule="nonzero"></path>
        <path d="M480.028229,101.000361 C688.840224,101.285514 858,270.42692 858,479 C858,687.769889 688.533534,857 479.5,857 C272.798057,857 104.397517,691.381079 101.050664,485.244864 L101.050664,485.244864 L101.007986,480.162027 C100.918296,469.053099 109.89874,459.999322 121.008037,459.999342 L121.008037,459.999342 L460,460 L460.000917,121.000291 C460.000945,110.059119 468.785975,101.172129 479.683405,101.000361 L479.683405,101.000361 Z" id="Combined-Shape" fill="#000000"></path>
    </g>
</svg>
